epam-assets/icon-sources/18/internal-logo/uuI.svg

<svg width="18" height="18" viewBox="0 0 18 18" fill="none" xmlns="http://www.w3.org/2000/svg">
<g id="18/internal-logo/uuI">
<path id="icon" fill-rule="evenodd" clip-rule="evenodd" d="M15.75 9.375V12.75L9 16.5L2.25 12.75V9.375L3.9375 10.275V11.7571L9 14.5696L14.0625 11.757V10.275L15.75 9.375ZM9 6L11.8125 7.5V10.5L9 12L6.1875 10.5V7.5L9 6ZM9 1.5L15.75 5.25V7.5L14.0625 8.4V6.24291L9 3.43031L3.9375 6.24281V8.4L2.25 7.5V5.25L9 1.5Z" fill="#6C6F80"/>
</g>
</svg>

<svg xmlns="http://www.w3.org/2000/svg" width="18" height="18" fill="none" viewBox="0 0 18 18">
  <path fill="#6C6F80" fill-rule="evenodd" d="M15.75 9.375v3.375L9 16.5l-6.75-3.75V9.375l1.688.9v1.482L9 14.57l5.063-2.813v-1.482l1.687-.9ZM9 6l2.813 1.5v3L9 12l-2.813-1.5v-3L9 6Zm0-4.5 6.75 3.75V7.5l-1.688.9V6.243L9 3.43 3.937 6.243V8.4L2.25 7.5V5.25L9 1.5Z" clip-rule="evenodd"/>
</svg>
